X:102
M:6/8
L:1/8
Q:3/8=100
K:G
|:G<e zd2c|c2B BAz|B<g zd2c|c2B B2c|
d<bz g2d|dcz cBz|d2G GDz|G2F A2G:|

